styles/3/Numix/64/places/blue-folder-hdd.svg

<?xml version="1.0" encoding="UTF-8" standalone="no"?>
<!-- Created with Inkscape (http://www.inkscape.org/) -->

<svg
   xmlns:dc="http://purl.org/dc/elements/1.1/"
   xmlns:cc="http://creativecommons.org/ns#"
   xmlns:rdf="http://www.w3.org/1999/02/22-rdf-syntax-ns#"
   xmlns:svg="http://www.w3.org/2000/svg"
   xmlns="http://www.w3.org/2000/svg"
   xmlns:sodipodi="http://sodipodi.sourceforge.net/DTD/sodipodi-0.dtd"
   xmlns:inkscape="http://www.inkscape.org/namespaces/inkscape"
   width="64"
   height="64"
   id="svg2"
   version="1.1"
   inkscape:version="0.91 r"
   sodipodi:docname="blue-folder-hdd.svg"
   inkscape:export-filename="/media/Data/Main/Visuals/Icons/Numix/Desktop/repos/numix-wiki/Gjorgi/Numix-folders/48/New/folder-144.png"
   inkscape:export-xdpi="270"
   inkscape:export-ydpi="270">
  <defs
     id="defs4" />
  <sodipodi:namedview
     id="base"
     pagecolor="#ffffff"
     bordercolor="#666666"
     borderopacity="1.0"
     inkscape:pageopacity="0.0"
     inkscape:pageshadow="2"
     inkscape:zoom="10.551073"
     inkscape:cx="26.878882"
     inkscape:cy="22.828243"
     inkscape:document-units="px"
     inkscape:current-layer="layer1"
     showgrid="true"
     inkscape:window-width="1280"
     inkscape:window-height="998"
     inkscape:window-x="0"
     inkscape:window-y="0"
     inkscape:window-maximized="1"
     showguides="true"
     inkscape:guide-bbox="true">
    <inkscape:grid
       type="xygrid"
       id="grid2985"
       empspacing="5"
       visible="true"
       enabled="true"
       snapvisiblegridlinesonly="true" />
  </sodipodi:namedview>
  <metadata
     id="metadata7">
    <rdf:RDF>
      <cc:Work
         rdf:about="">
        <dc:format>image/svg+xml</dc:format>
        <dc:type
           rdf:resource="http://purl.org/dc/dcmitype/StillImage" />
        <dc:title />
      </cc:Work>
    </rdf:RDF>
  </metadata>
  <g
     inkscape:label="Layer 1"
     inkscape:groupmode="layer"
     id="layer1"
     transform="translate(0,-988.3622)">
    <rect
       style="fill:#1976d2;fill-opacity:1;stroke:none"
       id="rect3757"
       width="52"
       height="20"
       x="6"
       y="1000.3622" />
    <path
       style="fill:#1976d2;fill-opacity:1;stroke:none"
       d="m 12,1000.3622 c 0,-2 0,-4 2.909091,-4 l 10.181819,0 c 2.90909,0 2.90909,2 2.90909,4 l 0,2 -16,0 z"
       id="path3759"
       inkscape:connector-curvature="0"
       sodipodi:nodetypes="ccccccc" />
    <path
       style="fill:#95989f;fill-opacity:1;stroke:none"
       d="m 10,1004.3622 44,0 0,9.9354 -44,0 z"
       id="path3765"
       inkscape:connector-curvature="0" />
    <rect
       y="1002.3622"
       x="14"
       height="25.999954"
       width="38"
       id="rect3763"
       style="fill:#d8d8da;fill-opacity:1;stroke:none" />
    <rect
       style="fill:#f9f9f9;fill-opacity:1;stroke:none"
       id="rect3761"
       width="38"
       height="25.999954"
       x="12"
       y="1006.3622" />
    <path
       style="fill:#42a5f5;fill-opacity:1;stroke:none"
       d="m 2,1008.3622 60,0 -4.285714,36 -51.4285718,0 z"
       id="path2987"
       inkscape:connector-curvature="0"
       sodipodi:nodetypes="ccccc" />
    <path
       style="opacity:1.0;fill:#2a74b9;fill-opacity:1;stroke:none"
       d="M 24 26 C 22.57543 26 22 26.6704 22 28 L 22 48 C 22 49.3296 22.57543 50 24 50 L 39.4375 50 C 40.862072 50 42 49.3296 42 48 L 42 28 C 42 26.6704 41.424572 26 40 26 L 24 26 z M 25.5 28 C 26.328427 28 27 28.671573 27 29.5 C 27 30.328427 26.328427 31 25.5 31 C 24.671573 31 24 30.328427 24 29.5 C 24 28.671573 24.671573 28 25.5 28 z M 38.5 28 C 39.328427 28 40 28.671573 40 29.5 C 40 30.328427 39.328427 31 38.5 31 C 37.671573 31 37 30.328427 37 29.5 C 37 28.671573 37.671573 28 38.5 28 z M 32 30 C 34.209138 30 36 31.7908 36 34 C 36 36.2092 34.209138 38 32 38 C 29.790862 38 28 36.2092 28 34 C 28 31.7908 29.790862 30 32 30 z M 25.5 37 C 26.328427 37 27 37.671573 27 38.5 C 27 39.328427 26.328427 40 25.5 40 C 24.671573 40 24 39.328427 24 38.5 C 24 37.671573 24.671573 37 25.5 37 z M 38.5 37 C 39.328427 37 40 37.671573 40 38.5 C 40 39.328427 39.328427 40 38.5 40 C 37.671573 40 37 39.328427 37 38.5 C 37 37.671573 37.671573 37 38.5 37 z M 25 46 L 39 46 C 39.554 46 40 46.446 40 47 C 40 47.554 39.554 48 39 48 L 25 48 C 24.446 48 24 47.554 24 47 C 24 46.446 24.446 46 25 46 z "
       transform="translate(0,988.3622)"
       id="rect3828" />
    <path
       sodipodi:type="arc"
       style="fill:#2a74b9;fill-opacity:1;fill-rule:evenodd;stroke:none;opacity:1.0"
       id="path2995"
       sodipodi:cx="32"
       sodipodi:cy="34"
       sodipodi:rx="2"
       sodipodi:ry="2"
       d="m 34,34 c 0,1.104569 -0.895431,2 -2,2 -1.104569,0 -2,-0.895431 -2,-2 0,-1.104569 0.895431,-2 2,-2 1.104569,0 2,0.895431 2,2 z"
       transform="translate(0,988.3622)" />
  </g>
</svg>

<!-- Created with Inkscape (http://www.inkscape.org/) -->
<svg xmlns="http://www.w3.org/2000/svg" viewBox="0 0 64 64">
 <g transform="translate(0,-988.3622)">
  <rect width="52" height="20" x="6" y="1000.36" style="fill:#1976d2;fill-opacity:1;stroke:none"/>
  <path d="m 12 1000.36 c 0 -2 0 -4 2.909 -4 l 10.182 0 c 2.909 0 2.909 2 2.909 4 l 0 2 -16 0 z" style="fill:#1976d2;fill-opacity:1;stroke:none"/>
  <path d="m 10 1004.36 44 0 0 9.935 -44 0 z" style="fill:#95989f;fill-opacity:1;stroke:none"/>
  <rect y="1002.36" x="14" height="26" width="38" style="fill:#d8d8da;fill-opacity:1;stroke:none"/>
  <rect width="38" height="26" x="12" y="1006.36" style="fill:#f9f9f9;fill-opacity:1;stroke:none"/>
  <path d="m 2 1008.36 60 0 -4.286 36 -51.43 0 z" style="fill:#42a5f5;fill-opacity:1;stroke:none"/>
  <path d="m 24 26 c -1.425 0 -2 0.67 -2 2 l 0 20 c 0 1.33 0.575 2 2 2 l 15.438 0 c 1.425 0 2.563 -0.67 2.563 -2 l 0 -20 c 0 -1.33 -0.575 -2 -2 -2 l -16 0 z m 1.5 2 c 0.828 0 1.5 0.672 1.5 1.5 c 0 0.828 -0.672 1.5 -1.5 1.5 c -0.828 0 -1.5 -0.672 -1.5 -1.5 c 0 -0.828 0.672 -1.5 1.5 -1.5 z m 13 0 c 0.828 0 1.5 0.672 1.5 1.5 c 0 0.828 -0.672 1.5 -1.5 1.5 c -0.828 0 -1.5 -0.672 -1.5 -1.5 c 0 -0.828 0.672 -1.5 1.5 -1.5 z m -6.5 2 c 2.209 0 4 1.791 4 4 c 0 2.209 -1.791 4 -4 4 c -2.209 0 -4 -1.791 -4 -4 c 0 -2.209 1.791 -4 4 -4 z m -6.5 7 c 0.828 0 1.5 0.672 1.5 1.5 c 0 0.828 -0.672 1.5 -1.5 1.5 c -0.828 0 -1.5 -0.672 -1.5 -1.5 c 0 -0.828 0.672 -1.5 1.5 -1.5 z m 13 0 c 0.828 0 1.5 0.672 1.5 1.5 c 0 0.828 -0.672 1.5 -1.5 1.5 c -0.828 0 -1.5 -0.672 -1.5 -1.5 c 0 -0.828 0.672 -1.5 1.5 -1.5 z m -13.5 9 l 14 0 c 0.554 0 1 0.446 1 1 c 0 0.554 -0.446 1 -1 1 l -14 0 c -0.554 0 -1 -0.446 -1 -1 c 0 -0.554 0.446 -1 1 -1 z" transform="translate(0,988.3622)" style="fill:#2a74b9;opacity:1;fill-opacity:1;stroke:none"/>
  <path d="m 34 34 c 0 1.105 -0.895 2 -2 2 -1.105 0 -2 -0.895 -2 -2 0 -1.105 0.895 -2 2 -2 1.105 0 2 0.895 2 2 z" transform="translate(0,988.3622)" style="fill:#2a74b9;opacity:1;fill-opacity:1;stroke:none;fill-rule:evenodd"/>
 </g>
</svg>
